X: 1685
T: Saçının Telleri Göğsünde...
C: Münir Nurettin Selçuk
O: Turkey
F: http://compmusic.upf.edu/node/140
N: sultaniyegah--sarki--aksak--sacinin_telleri--munir_nurettin_selcuk
N: makam= sultaniyegah
N: form= sarki
N: usul= aksak = 9/8
M: 9/8
L: 1/16
K: C _B ^c  
Q: 1/4=126
%%MIDI tuningsystem comma53
d3/2c/de c2B2 A2G2 A2B2 c2 | d2 efag feed dcd4z2  | 
w:  ARANAĞME  |   | 
ef2f f2f2 fefg a6 | e4c4BA BcA4z2  | \
w:   |   | 
A=c2c c2c2 c=Bc_e dc_BA G2 | 
w:   | 
GB2BB2 B2BA Bd=cB AGF2  | FA2A A2A2 AGAB AGFE D2 | 
w:   |   | 
EF EFAG FEED DCD6  | d3/2c/de c2B2 A2G2 A2B2 c2 | 
w:   |  ARANAĞME  | 
d2 efag feed dcd4z2  | ef2f f2f2 fefg a6 | 
w:   |   | 
e4c4BA BcA4z2  | A=c2c c2c2 c=Bc_e dc_BA G2 | 
w:   |   | 
GB2BB2 B2BA Bd=cB AGF2  | FA2A A2A2 AGAB AGFE D2 | 
w:   |   | 
EF EFAG FEED DCD6  | z4 A2A2 d4 f2e2 d2 | \
w:   |  Sa çı nın   | 
c3AB2 c2d8z2  | 
w:  tel *  *  le ri   | 
e4 f4 e2g2 f2e2 d2 | f3eed dcd4fe dcBc  | \
w:  göğ sün de  pe rî  |  şan  *  ya *  ra *  şır   SAZ  | 
A4 A2A2 d4 f2e2 d2 | 
w:  *  Sa çı nın   | 
c3AB2 c2d8z2  | e4 f4 e2f2 g2f2 e2 | \
w:  tel *  *  le ri   |  göğ sün de  pe rî  | 
e3fed cde4ef edcd  | 
w:  şan  *  ya *  ra *  şır   SAZ  | 
e4 d3a a4 abab ag | g2 f2g2 aggf fef2 e2gf  | 
w:  *  Öy le sün bül  |  *  *  le re  *  bir  *  *  *  böy  | 
f4 g2b2 a2g2 f2e2 d2 | f3eed dcd4A4Bc  | \
w:  *  le gü lis *  tan   |  *  *  ya *  ra *  şır   SAZ  | 
d4 d3^f _7/8e3d dede dc | 
w:  *  Öy le  sün *  bül  | 
c2 (3BABc2 d2cB BAA4=B2  | =c3B A2d2 c2B2 A2G2 F2 | 
w:  *  *  *  *  le re  bir  *  *  *  böy  |  *  *  le  gü lis *  tan   | 
E2 FEED DCD4a3gfg  | a4 g3a a4 a2_1/4b2 =c'2 | \
w:  *  *  *  ya *  ra *  şır   SAZ  |  *  Tâc  o lur  ay  | 
a3gag fga4f2 _7/8g2gf  | 
w:  *  *  la  *  gü *  neş  al  | 
f3_1/4e feed d4 b2a2 g2 | g2 agag fga4a3gfg  | 
w:  *  *  nı *  na  *  her  an   |  *  *  *  ya *  ra *  şır   SAZ  | 
a4 g3a a4 a2_1/4b2 =c'2 | a3gag fed4e2 f2fe  | \
w:  *  Tâc  o lur  ay  |  *  *  la  *  gü *  neş  al  | 
e3d c2d2 e2f2 g2f2 e2 | 
w:  *  *  nı na  her  *  an   | 
e3fed cde4ef edcd  | e4 d3a a4 abab ag | 
w:  *  *  ya *  ra *  şır   SAZ  |  *  Gön lü mün  tah  | 
g2 f2g2 aggf fef2 e2gf  | f4 g2b2 a2g2 f2e2 d2 | 
w:  *  *  tı na  *  bir  *  *  *  sen   |  *  gi bi  sul *  tan   | 
f3eed dcd4A4Bc  | d4 d3^f _7/8e3d dede dc | 
w:  *  *  ya *  ra *  şır   SAZ  |  *  Gön lü mün  *  tah  | 
c2 (3BABc2 d2cB BAA4=B2  | =c4 A2d2 c2B2 A2G2 F2 | \
w:  *  *  *  *  tı na  bir  *  *  *  sen   |  *  gi bi  sul *  tan   | 
E2 FEED DCD8-D2  | 
w:  *  *  *  ya *  ra *  şır    | 
|


